X:895
T:Reel 895
M:4/4
K:Gmaj
L:1/8
bg|gfdc BdGB|Adfe agfe|Gcdc BdGB|cdef gfga|bc'd'f gfdB|cedc BGGB|BAGA Bcdc'|bd'af g2|ga|bagb agfa|gfge fdBc|bagb agfd|ec'df g2ga|bagb agfa|gfdg fdcA|BABc defd|cafa g2|
